X:1
T:Title
%%score { ( 1 3 ) | 2 }
L:1/8
M:3/4
K:D
V:1 treble nm="Grand Piano"
V:3 treble 
V:2 bass 
V:1
 z2 z2[Q:1/4=100] D>E | F2 E2 D2 | [FA]4 [FA]>[FA] | [GB]2 [Bd]2 [GB]2 | [FA]4 D>E | F2 F2 [EG]2 | %6
 [FA]2 [FA]2 [DF]2 | [CE]4 D>E | F2 E2 D2 | [FA]4 [FA]>[FA] | [DGB]2 [DBd]2 [DGB]2 | %11
[M:2/4] [DFA]4 |[M:1/4][K:bass] [F,D]>[G,DE] |[M:3/4][K:treble] [A,DF]2 [A,DF]2 [B,DG]2 | %14
 [A,DF]2[K:bass] [F,D]2 [G,CE]2 | [F,D]4 z2 | F2 B2 A2 | [EG]6 | [CE]2 [FA]2 [EG]2 | %19
 [DF]4 [FA]>[FA] | [Fd]2 [Ac]2 [GB]2 | [FA]2 [A,DF]2 [B,D][B,DG] | [A,DF]2[K:bass] [F,D]2 [G,CE]2 | %23
[M:2/4] [F,D]4 |] %24
V:2
 z2 z2 [D,F,]>[D,G,D] | [D,A,D]2 [D,G,D]2 [D,F,]2 | [D,D]4 [D,D]>[D,D] | [G,D]2 [G,D]2 [G,D]2 | %4
 [D,D]4 [D,F,]>[D,G,D] | [D,A,D]2 [D,A,D]2 [D,A,]2 | [D,D]2 [D,D]2 [D,A,]2 | %7
 [A,,A,]4 [D,F,]>[D,G,D] | [D,A,D]2 [D,D]2 [D,F,]2 | [D,D]4 [D,D]>[D,D] | G,2 G,2 G,2 | %11
[M:2/4] D,4 |[M:1/4] D,>D, |[M:3/4] D,2 D,2 G,,2 | A,,2 A,,2 A,,2 | D,4 z2 | D2 G2 F2 | %17
 A,,2 A,,2 A,,2 | [A,,A,]4 [C,A,]2 | [D,A,]4 [D,D]>[D,D] | [D,A,]2 [D,D]2 [D,D]2 | %21
 [D,D]2 D,2 G,,G,, | A,,2 A,,2 A,,2 |[M:2/4] D,4 |] %24
V:3
 x6 | x6 | x6 | x6 | x6 | x6 | x6 | x6 | x6 | x6 | x6 |[M:2/4] x4 |[M:1/4][K:bass] x2 | %13
[M:3/4][K:treble] x6 | x2[K:bass] x4 | x6 | x6 | C2 C2 C2 | x6 | x6 | x6 | x6 | x2[K:bass] x4 | %23
[M:2/4] x4 |] %24

